static/Icons/image.svg

<svg fill="none" height="24" viewBox="0 0 24 24" width="24" xmlns="http://www.w3.org/2000/svg"><g fill="#292d32"><path d="m22.0206 16.8198-3.13-7.32002c-.57-1.34-1.42-2.1-2.39-2.15-.96-.05-1.89.62-2.6 1.9l-1.9 3.41002c-.4.72-.97 1.15-1.59 1.2-.62997.06-1.25997-.27-1.76997-.92l-.22-.28c-.71-.89-1.59-1.32-2.49-1.23s-1.67.71-2.18 1.72l-1.73 3.45c-.62 1.25-.56 2.7.17 3.88s2 1.89 3.39 1.89h12.75997c1.34 0 2.59-.67 3.33-1.79.76-1.12.88-2.53.35-3.76z" opacity=".4"/><path d="m6.96984 8.38012c1.86673 0 3.37996-1.51328 3.37996-3.38 0-1.86673-1.51323-3.38-3.37996-3.38-1.86672 0-3.38 1.51327-3.38 3.38 0 1.86672 1.51328 3.38 3.38 3.38z"/></g></svg>

<svg width="24" height="24" viewBox="0 0 24 24" fill="none" xmlns="http://www.w3.org/2000/svg">
<path opacity="0.4" d="M22.0206 16.8198L18.8906 9.49978C18.3206 8.15978 17.4706 7.39978 16.5006 7.34978C15.5406 7.29978 14.6106 7.96978 13.9006 9.24978L12.0006 12.6598C11.6006 13.3798 11.0306 13.8098 10.4106 13.8598C9.78063 13.9198 9.15063 13.5898 8.64063 12.9398L8.42063 12.6598C7.71063 11.7698 6.83063 11.3398 5.93063 11.4298C5.03063 11.5198 4.26063 12.1398 3.75063 13.1498L2.02063 16.5998C1.40063 17.8498 1.46063 19.2998 2.19063 20.4798C2.92063 21.6598 4.19063 22.3698 5.58063 22.3698H18.3406C19.6806 22.3698 20.9306 21.6998 21.6706 20.5798C22.4306 19.4598 22.5506 18.0498 22.0206 16.8198Z" fill="#292D32"/>
<path d="M6.96984 8.38012C8.83657 8.38012 10.3498 6.86684 10.3498 5.00012C10.3498 3.13339 8.83657 1.62012 6.96984 1.62012C5.10312 1.62012 3.58984 3.13339 3.58984 5.00012C3.58984 6.86684 5.10312 8.38012 6.96984 8.38012Z" fill="#292D32"/>
</svg>
